icons/applepodcasts.svg

<svg width="32" height="32" viewBox="0 0 32 32" fill="none" xmlns="http://www.w3.org/2000/svg">
<path fill-rule="evenodd" clip-rule="evenodd" d="M3.36627 28.6337C0.910867 26.1783 0 22.1783 0 16C0 9.82167 0.910867 5.82167 3.36627 3.36627C5.82167 0.910867 9.82167 0 16 0C22.1783 0 26.1783 0.910867 28.6337 3.36627C31.0891 5.82167 32 9.82167 32 16C32 22.1783 31.0891 26.1783 28.6337 28.6337C26.1783 31.0891 22.1783 32 16 32C9.82167 32 5.82167 31.0891 3.36627 28.6337Z" fill="url(#paint0_linear_29_87)"/>
<path fill-rule="evenodd" clip-rule="evenodd" d="M15.9667 3.53716C10.4481 3.55312 5.7433 7.54208 4.82491 12.9838C3.90652 18.4255 7.04157 23.7376 12.2493 25.5638C12.2996 25.5814 12.3554 25.5715 12.3966 25.5377C12.4377 25.5039 12.4583 25.4511 12.4508 25.3984C12.3918 25.0112 12.3375 24.6212 12.2867 24.2369C12.2698 24.1015 12.1829 23.985 12.0579 23.9302C7.76414 22.0623 5.37032 17.4378 6.32427 12.8535C7.27822 8.26923 11.3181 4.98347 16.0006 4.98347C20.6831 4.98347 24.723 8.26923 25.6769 12.8535C26.6309 17.4378 24.237 22.0623 19.9433 23.9302C19.8183 23.985 19.7313 24.1015 19.7144 24.2369C19.664 24.6198 19.6093 25.0098 19.5503 25.3969C19.5424 25.4497 19.5628 25.5029 19.6041 25.5368C19.6454 25.5707 19.7015 25.5804 19.7518 25.5624C24.971 23.7318 28.1062 18.4009 27.1695 12.9498C26.2327 7.49878 21.4977 3.52035 15.9667 3.53716ZM15.9997 16.5834C14.5428 16.5834 13.3617 15.4023 13.3617 13.9454C13.3616 13.2456 13.6396 12.5745 14.1344 12.0798C14.6292 11.585 15.3003 11.3071 16.0001 11.3073C17.457 11.3074 18.638 12.4886 18.6379 13.9455C18.6378 15.4025 17.4566 16.5835 15.9997 16.5834ZM15.9955 17.6513C16.8546 17.6083 17.6953 17.9098 18.3313 18.4889C18.5803 18.7374 18.7324 19.0666 18.7603 19.4172C18.8243 20.2296 18.8064 21.0463 18.707 21.8552C18.6235 22.8436 18.4637 24.1605 18.2551 25.5018C18.1706 26.1228 18.0441 26.7373 17.8765 27.3411C17.5688 28.0916 16.8021 28.5486 15.9955 28.4622C15.189 28.5484 14.4225 28.0915 14.1145 27.3411C13.9472 26.7372 13.8208 26.1227 13.736 25.5018C13.5273 24.1593 13.3676 22.8425 13.2841 21.8552C13.1844 21.0464 13.167 20.2295 13.2323 19.4172C13.2603 19.0669 13.4118 18.738 13.6597 18.4889C14.2954 17.9093 15.1363 17.6077 15.9955 17.6513ZM21.6692 12.5009C20.6791 10.1355 18.3232 8.63468 15.761 8.73708H15.7612C13.2871 8.83313 11.1129 10.4059 10.2473 12.7256C9.38172 15.0453 9.99422 17.6579 11.8006 19.3511C11.9021 19.446 11.9564 19.5809 11.9488 19.7195C11.9267 20.1512 11.931 20.5837 11.9617 21.0148C11.9652 21.0714 11.9363 21.125 11.8871 21.1531C11.8379 21.1812 11.777 21.1789 11.7301 21.1472C8.97618 19.2725 7.76636 15.8214 8.74693 12.6375C9.7275 9.45366 12.6693 7.28114 16.0007 7.2806C19.3322 7.28005 22.2747 9.4516 23.2563 12.6351C24.2379 15.8187 23.0292 19.2702 20.2759 21.1458C20.2288 21.1777 20.1677 21.1801 20.1182 21.1521C20.0687 21.124 20.0394 21.0702 20.0426 21.0134C20.0719 20.5827 20.0762 20.1507 20.0555 19.7195C20.0486 19.581 20.1028 19.4463 20.2038 19.3511C22.075 17.5979 22.6593 14.8663 21.6692 12.5009Z" fill="white"/>
<defs>
<linearGradient id="paint0_linear_29_87" x1="0" y1="0" x2="0" y2="32" gradientUnits="userSpaceOnUse">
<stop stop-color="#F452FF"/>
<stop offset="1" stop-color="#832BC1"/>
</linearGradient>
</defs>
</svg>

<svg xmlns="http://www.w3.org/2000/svg" width="32" height="32" fill="none" viewBox="0 0 32 32">
  <path fill="url(#a)" fill-rule="evenodd" d="M3.366 28.634C.911 26.178 0 22.178 0 16S.91 5.822 3.366 3.366C5.822.911 9.822 0 16 0s10.178.91 12.634 3.366C31.089 5.822 32 9.822 32 16s-.91 10.178-3.366 12.634C26.178 31.089 22.178 32 16 32s-10.178-.91-12.634-3.366Z" clip-rule="evenodd"/>
  <path fill="#fff" fill-rule="evenodd" d="M15.967 3.537a11.333 11.333 0 0 0-3.718 22.027.153.153 0 0 0 .202-.166 58.705 58.705 0 0 1-.164-1.161.388.388 0 0 0-.229-.307 9.884 9.884 0 1 1 7.885 0 .388.388 0 0 0-.229.307c-.05.383-.105.773-.164 1.16a.152.152 0 0 0 .202.165 11.332 11.332 0 0 0-3.785-22.025ZM16 16.583a2.638 2.638 0 1 1 0-5.276 2.638 2.638 0 0 1 0 5.276Zm-.004 1.068a3.23 3.23 0 0 1 2.335.838c.25.248.402.578.43.928.063.813.045 1.63-.054 2.438a55.305 55.305 0 0 1-.452 3.647c-.084.62-.21 1.235-.378 1.84a1.823 1.823 0 0 1-1.881 1.12 1.824 1.824 0 0 1-1.881-1.12 13.97 13.97 0 0 1-.379-1.84 55.556 55.556 0 0 1-.452-3.647 12.04 12.04 0 0 1-.052-2.438c.028-.35.18-.679.428-.928a3.224 3.224 0 0 1 2.336-.838Zm5.673-5.15a6.14 6.14 0 0 0-5.908-3.764 6.14 6.14 0 0 0-3.96 10.614.47.47 0 0 1 .148.369c-.022.431-.018.864.013 1.295a.149.149 0 0 1-.232.132 7.591 7.591 0 1 1 8.546-.001.15.15 0 0 1-.233-.133c.029-.43.033-.862.013-1.294a.474.474 0 0 1 .148-.368 6.139 6.139 0 0 0 1.465-6.85Z" clip-rule="evenodd"/>
  <defs>
    <linearGradient id="a" x1="0" x2="0" y1="0" y2="32" gradientUnits="userSpaceOnUse">
      <stop stop-color="#F452FF"/>
      <stop offset="1" stop-color="#832BC1"/>
    </linearGradient>
  </defs>
</svg>
